app/dist/common/images/futuretech-ii-acquisition.svg

<svg height="18" viewBox="0 0 18 18" width="18" xmlns="http://www.w3.org/2000/svg"><path d="m0 0h18v18h-18z" fill="#f0f3fa"/><path d="m7.5 6h-3.5v1h3.5zm-3.5 6v-4h3.5v1h-2.5v3z" fill="#015cab"/><path d="m9 6h-1.3v.7h1.3v5.3h.7v-5.3h1.32v-.7z" fill="#201715"/><path d="m11 6h1v6h-1zm2 0h1v6h-1z" fill="#015cab"/></svg>

<!-- by TradingView --><svg width="18" height="18" viewBox="0 0 18 18" xmlns="http://www.w3.org/2000/svg"><path fill="#F0F3FA" d="M0 0h18v18H0z"/><path d="M7.5 6H4v1h3.5V6ZM4 12V8h3.5v1H5v3H4Z" fill="#015CAB"/><path d="M9 6H7.7v.7H9V12h.7V6.7h1.32V6H9Z" fill="#201715"/><path fill="#015CAB" d="M11 6h1v6h-1zM13 6h1v6h-1z"/></svg>
